lib/flags/m/LKA.svg

<svg xmlns="http://www.w3.org/2000/svg" fill="none" viewBox="0 0 20 15"><mask id="LKA_svg__a" width="20" height="15" x="0" y="0" mask-type="alpha" maskUnits="userSpaceOnUse"><path fill="#fff" d="M0 0H20V15H0z"/></mask><g mask="url(#LKA_svg__a)"><path fill="#FECA00" fill-rule="evenodd" d="M0 0H20V15H0V0Z" clip-rule="evenodd"/><path fill="#1F8A6E" d="M1.25 1.25H5V13.75H1.25z"/><path fill="#F56800" d="M5 1.25H8.75V13.75H5z"/><path fill="#B01D00" d="M8.75 1.25H18.75V13.75H8.75z"/><path fill="#E8AA00" d="M7.5 1.25H8.75V13.75H7.5z"/><path fill="#FECA00" fill-rule="evenodd" d="M10.6878 3.8584C10.6878 3.8584 9.89171 3.85609 9.89171 5.24222V7.27482C9.89171 7.27482 9.51276 7.34239 9.51276 7.5778 9.51276 7.8132 9.59307 8.01918 9.74239 8.01918 9.89171 8.01918 10.041 8.70976 9.89171 8.70976 9.74239 8.70976 9.59307 9.00606 9.74239 9.00606 9.77812 9.00606 9.8053 9.00122 9.82597 8.99753 9.84772 8.99366 9.86227 8.99106 9.87201 8.99673 9.89171 9.00821 9.89171 9.05353 9.89171 9.19053 9.89171 9.45963 9.74239 9.56844 9.74239 9.56844 9.74239 9.56844 9.60176 9.52921 9.60176 9.68757 9.60176 9.84593 9.74239 9.88602 9.74239 9.88602 9.74239 9.88602 9.8229 9.92083 9.66783 9.99581 9.51276 10.0708 9.51276 10.107 9.51276 10.107H9.89171L10.0815 10.4543 10.2626 10.107H10.6367C10.6367 10.107 10.4483 9.98656 10.4262 9.96131 10.4041 9.93606 10.3774 9.89918 10.4262 9.85696 10.4404 9.84465 10.4613 9.83524 10.4837 9.82514 10.538 9.8006 10.6015 9.77195 10.6015 9.68757 10.6015 9.56844 10.3627 9.56844 10.3627 9.56844 10.3627 9.56844 10.217 9.3054 10.2626 9.19053 10.2754 9.15841 10.2826 9.12983 10.2889 9.10533 10.3049 9.04218 10.3141 9.00606 10.3925 9.00606 10.5012 9.00606 10.5636 8.86879 10.4262 8.70976 10.4262 8.70976 10.5837 8.87907 10.5374 9.09877 10.4912 9.31848 10.5856 9.41798 10.6367 9.41798 10.6878 9.41798 10.7691 9.34243 10.7691 9.34243 10.7691 9.34243 11.1938 9.72213 11.3804 9.72213 11.5671 9.72213 11.8346 9.41798 11.8346 9.41798L12.2188 9.63374C12.2188 9.63374 12.5 10.0277 12.4585 10.2985 12.4171 10.5693 12.2568 10.7202 12.0682 10.6783 11.8795 10.6364 11.5727 10.7224 11.5494 10.8392 11.5458 10.8569 11.5406 10.8784 11.5348 10.902L11.5348 10.902C11.5025 11.0346 11.4542 11.2331 11.602 11.1841 11.7763 11.1264 11.8104 11.0822 11.8104 11.0822 11.8104 11.0822 11.7875 11.1841 11.9278 11.1841 12.0682 11.1841 12.1087 11.0822 12.1087 11.0822 12.1087 11.0822 12.2542 11.1841 12.3564 11.1841 12.4585 11.1841 12.573 11.1056 12.573 11.1056 12.573 11.1056 12.6483 11.2223 12.8148 11.1841 12.9814 11.146 13.1073 10.7112 12.9862 10.6138 12.9862 10.6138 13.388 10.5555 13.4911 10.2063 13.4911 10.2063 13.1024 10.2005 13.1425 9.96131 13.1825 9.72213 13.3878 9.56844 13.3878 9.56844 13.3878 9.56844 13.9789 9.28229 14.2333 9.19053 14.4876 9.09877 14.9103 9.00606 15.015 9.00606 15.0577 9.00606 15.0881 9.10557 15.1294 9.24045 15.1895 9.43699 15.2726 9.70865 15.4499 9.85696 15.7488 10.107 15.545 10.6783 15.545 10.6783 15.545 10.6783 14.8797 10.7453 14.8797 10.9255 14.8797 11.1056 14.8904 11.1841 15.015 11.1841 15.1396 11.1841 15.1371 11.0822 15.1371 11.0822 15.1371 11.0822 15.211 11.1841 15.3305 11.1841 15.4499 11.1841 15.545 11.0822 15.545 11.0822 15.545 11.0822 15.5767 11.1841 15.7332 11.1841 15.8896 11.1841 15.8885 11.0822 15.8885 11.0822 15.8885 11.0822 15.9167 11.1841 16.0545 11.1841 16.1924 11.1841 16.4754 11.0822 16.4754 11.0822 16.4754 11.0822 16.5198 11.1841 16.663 11.1841 16.8061 11.1841 16.8095 11.0822 16.8095 11.0822 16.8095 11.0822 16.886 11.1841 17.01 11.1841 17.134 11.1841 17.2067 11.0822 17.2067 11.0822 17.2067 11.0822 17.385 11.1841 17.508 11.1841 17.631 11.1841 17.5869 11 17.508 10.8392 17.4881 10.7985 17.465 10.7637 17.4439 10.732 17.3816 10.6382 17.3367 10.5707 17.4423 10.4543 17.4722 10.4213 17.5064 10.388 17.5407 10.3546L17.5407 10.3546C17.6686 10.2303 17.7971 10.1053 17.7029 9.99581 17.675 9.96332 17.6423 9.94059 17.6094 9.91773 17.5016 9.84288 17.3919 9.76668 17.4423 9.34243 17.4724 9.08837 17.5298 8.88183 17.583 8.69007L17.583 8.69006C17.6458 8.46379 17.7029 8.2581 17.7029 8.01918 17.7029 7.5778 17.4423 7.07307 17.4423 7.07307 17.4423 7.07307 17.7933 6.82811 17.7933 6.3298 17.7933 5.8315 17.01 5.77715 17.01 5.77715 17.01 5.77715 16.232 5.97742 15.8885 5.87729 15.811 5.85469 15.7461 5.83844 15.6921 5.82491 15.5069 5.77852 15.4499 5.76424 15.4499 5.63585 15.4499 5.47006 15.1998 5.77715 15.1998 5.77715 15.1998 5.77715 15.0039 5.69849 15.1371 5.53572 15.2703 5.37296 15.3305 5.30915 15.3305 5.30915 15.3305 5.30915 15.2131 5.17528 15.015 5.24222 14.817 5.30915 14.7816 5.42006 14.7816 5.42006 14.7816 5.42006 14.5558 5.18891 14.6965 5.02107 14.8372 4.85323 15.015 5.02107 15.015 5.02107 15.015 5.02107 15.2173 5.12668 15.2336 4.98805 15.2499 4.84943 15.2336 4.73888 15.2336 4.73888 15.2336 4.73888 15.7411 4.88443 15.5977 5.11083 15.4543 5.33723 15.545 5.42006 15.545 5.42006 15.545 5.42006 15.8938 5.44152 15.9568 5.20091 15.9807 5.10991 15.9767 5.02165 15.9593 4.9523 16.0598 4.99963 16.1736 5.05572 16.1418 5.14878 16.0834 5.31974 15.9568 5.53572 15.9568 5.53572 15.9568 5.53572 16.3053 5.51535 16.4092 5.24222 16.5131 4.96908 16.4754 5.30915 16.4754 5.30915 16.4754 5.30915 16.609 5.30439 16.8095 5.42006 17.01 5.53572 16.8095 5.24222 16.8095 5.24222 16.8095 5.24222 17.2257 5.75822 17.6193 5.69704 18.0129 5.63585 17.9911 5.30915 17.9911 5.30915 17.9911 5.30915 17.8979 5.14878 17.7029 5.14878 17.508 5.14878 17.6193 5.30915 17.6193 5.30915 17.6193 5.30915 17.8093 5.41738 17.508 5.30915 17.4208 5.2778 17.2905 5.1766 17.129 5.05103L17.1289 5.05103C16.7326 4.74306 16.1477 4.28848 15.545 4.3581 14.6965 4.4561 14.4005 4.83525 14.4005 4.83525V4.51955C14.4005 4.51955 14.2579 4.73888 14.125 4.73888 13.9921 4.73888 13.623 4.51955 13.623 4.51955L13.3878 4.73888C13.3878 4.73888 13.2988 4.51955 13.1425 4.51955 12.9862 4.51955 12.9862 4.73888 12.9862 4.73888 12.9862 4.73888 12.7895 4.64219 12.573 4.64219 12.4842 4.64219 12.4088 4.60979 12.3506 4.5848 12.2667 4.54881 12.2188 4.52822 12.2188 4.64219 12.2188 4.66532 12.2193 4.6874 12.2198 4.7084V4.70841C12.2236 4.86271 12.226 4.95899 12.0015 4.98805 11.7464 5.02107 11.5494 5.02107 11.5494 5.02107 11.5494 5.02107 11.3967 4.83525 11.2779 4.83525 11.1591 4.83525 11.0215 4.97944 11.0215 5.11083 11.0215 5.24222 11.1754 5.61692 11.2779 5.69704 11.3049 5.71814 11.2999 5.71583 11.2779 5.70569 11.2162 5.67731 11.0215 5.5876 11.0215 5.77715 11.0215 5.90784 11.0541 5.94051 11.0779 5.96437 11.101 5.9875 11.1158 6.00235 11.0847 6.09009 11.0718 6.12661 11.054 6.16884 11.0354 6.21292 10.9634 6.38407 10.8796 6.58301 11.0215 6.58301 11.0981 6.58301 11.1705 6.56614 11.2221 6.55413 11.2907 6.53816 11.3224 6.53078 11.2779 6.58301 11.2602 6.60382 11.2363 6.62888 11.2122 6.65415L11.2122 6.65415C11.1304 6.74001 11.0463 6.82835 11.1919 6.76131 11.2685 6.72607 11.3331 6.67494 11.3864 6.63278 11.4644 6.57114 11.5181 6.52866 11.5494 6.58301 11.5692 6.61738 11.5533 6.66332 11.5397 6.70269 11.5171 6.76817 11.5008 6.8155 11.665 6.76131 11.7225 6.74231 11.7562 6.72749 11.775 6.71685 11.7758 6.72751 11.7845 6.74233 11.8104 6.76131 11.8655 6.80176 11.8549 6.84007 11.8469 6.86935 11.8377 6.9025 11.8318 6.92407 11.9278 6.92407 12.0197 6.92407 12.1495 6.85283 12.2263 6.81061 12.3008 6.76973 12.3257 6.75605 12.2188 6.86058 12.1514 6.92646 12.054 6.97037 11.9458 7.01912 11.705 7.12761 11.4112 7.26002 11.2779 7.71168 11.098 8.32135 11.1786 8.44699 11.1905 8.46136L10.6367 7.85497C10.6367 7.85497 10.7691 7.75146 10.7691 7.5778 10.7691 7.40413 10.4262 7.27482 10.4262 7.27482 10.4262 7.27482 10.4382 5.11373 10.5374 4.64219 10.6367 4.17065 10.6878 3.8584 10.6878 3.8584zM11.7922 6.69643C11.786 6.69645 11.774 6.70326 11.775 6.71685 11.799 6.70322 11.7985 6.69642 11.7922 6.69643zM15.9593 4.9523 15.9519 4.94884C15.8708 4.9107 15.8011 4.87789 15.8279 4.83525 15.8656 4.77533 15.9306 4.83827 15.9593 4.9523zM16.3257 9.62849C16.3257 9.62849 16.0633 9.88591 16.2299 9.94249 16.2805 9.95965 16.342 9.96922 16.3991 9.97812 16.5304 9.99855 16.6389 10.0154 16.5394 10.1126 16.3966 10.2521 16.2757 10.4406 16.2757 10.6123 16.2757 10.7839 16.2798 10.9288 16.3257 10.8564 16.351 10.8166 16.4546 10.775 16.5663 10.7301 16.658 10.6932 16.7552 10.6542 16.8186 10.6123 16.9386 10.533 16.9369 10.4473 16.9338 10.2932V10.2932C16.9332 10.2665 16.9326 10.2379 16.9326 10.2068 16.9326 9.99624 16.3257 9.62849 16.3257 9.62849zM14.2894 6.18097C14.3505 6.13235 14.3545 5.53225 14.3545 5.53225 14.3545 5.53225 14.5691 5.60369 14.5691 5.69744 14.5691 5.75582 14.5528 5.78921 14.5283 5.83961 14.5135 5.87014 14.4956 5.90691 14.4764 5.95925 14.4293 6.08817 14.5576 6.16893 14.6768 6.24395 14.6858 6.24968 14.6949 6.25537 14.7038 6.26104 14.7846 6.31255 14.8073 6.20079 14.8248 6.11451 14.8345 6.06669 14.8426 6.02669 14.8582 6.02669 14.9018 6.02669 15.227 6.10043 15.4718 6.22481 15.6854 6.33335 15.895 6.28006 16.375 6.15803 16.4451 6.1402 16.521 6.1209 16.6035 6.10043 17.2509 5.93981 17.3359 6.18097 17.4023 6.37084 17.4686 6.5607 16.9661 6.8238 16.6035 6.87148 16.4442 6.89243 16.3063 6.88577 16.1793 6.87964 16.0173 6.87181 15.8733 6.86486 15.726 6.91724 15.495 6.99936 14.7728 6.99118 14.4908 6.98799 14.4519 6.98755 14.4214 6.9872 14.4017 6.9872 14.2723 6.9872 14.2478 6.94635 14.1987 6.86438 14.1862 6.84354 14.1721 6.82006 14.1543 6.79391 14.0665 6.66488 14.1731 6.58051 14.2421 6.58051 14.3112 6.58051 14.2894 6.42948 14.2421 6.37084 14.1949 6.3122 14.2282 6.22959 14.2894 6.18097zM8.85699 1.32648V1.55213C8.85699 1.57991 8.845 1.61781 8.83156 1.66029 8.78895 1.79495 8.73178 1.97566 8.99572 2.02644 9.34294 2.09325 9.59871 2.24508 9.67648 2.38842 9.72632 2.48028 9.71228 2.32721 9.69577 2.14718 9.68651 2.04629 9.67648 1.93692 9.67648 1.85745 9.67648 1.63618 9.42862 1.20498 9.25298 1.32648 9.07735 1.44797 8.85699 1.32648 8.85699 1.32648zM8.85699 13.4421V13.6677C8.85699 13.6677 9.07735 13.5462 9.25298 13.6677 9.42862 13.7892 9.67648 13.358 9.67648 13.1368 9.67648 13.0573 9.68651 12.9479 9.69577 12.847 9.71228 12.667 9.72632 12.5139 9.67648 12.6058 9.59871 12.7491 9.34294 12.901 8.99572 12.9678 8.73178 13.0186 8.78896 13.1993 8.83156 13.3339 8.845 13.3764 8.85699 13.4143 8.85699 13.4421zM18.6473 13.4421V13.6677C18.6473 13.6677 18.4269 13.5462 18.2513 13.6677 18.0756 13.7892 17.8278 13.358 17.8278 13.1368 17.8278 13.0573 17.8177 12.9479 17.8085 12.847 17.792 12.667 17.7779 12.5139 17.8278 12.6058 17.9055 12.7491 18.1613 12.901 18.5085 12.9678 18.7725 13.0186 18.7153 13.1993 18.6727 13.3339 18.6593 13.3764 18.6473 13.4143 18.6473 13.4421zM18.6473 1.55213V1.32648C18.6473 1.32648 18.4269 1.44797 18.2513 1.32648 18.0756 1.20498 17.8278 1.63618 17.8278 1.85745 17.8278 1.93692 17.8177 2.04629 17.8085 2.14718 17.792 2.32721 17.7779 2.48028 17.8278 2.38842 17.9055 2.24508 18.1613 2.09325 18.5085 2.02644 18.7725 1.97566 18.7153 1.79495 18.6727 1.66029 18.6593 1.61781 18.6473 1.57991 18.6473 1.55213z" clip-rule="evenodd"/></g></svg>

<svg xmlns="http://www.w3.org/2000/svg" fill="none" viewBox="0 0 20 15"><mask id="LKA_svg__a" width="20" height="15" x="0" y="0" maskUnits="userSpaceOnUse"><path fill="#fff" d="M0 0h20v15H0z"/></mask><g mask="url(#LKA_svg__a)"><path fill="#FECA00" fill-rule="evenodd" d="M0 0h20v15H0V0z" clip-rule="evenodd"/><path fill="#1F8A6E" d="M1.25 1.25H5v12.5H1.25z"/><path fill="#F56800" d="M5 1.25h3.75v12.5H5z"/><path fill="#B01D00" d="M8.75 1.25h10v12.5h-10z"/><path fill="#E8AA00" d="M7.5 1.25h1.25v12.5H7.5z"/><path fill="#FECA00" fill-rule="evenodd" d="M10.688 3.858s-.796-.002-.796 1.384v2.033s-.38.067-.38.303c0 .235.081.441.23.441.15 0 .3.69.15.69s-.299.297-.15.297c.036 0 .063-.005.084-.008.022-.004.036-.007.046-.001.02.011.02.057.02.194 0 .269-.15.377-.15.377s-.14-.039-.14.12c0 .158.14.198.14.198s.08.035-.074.11c-.155.075-.155.111-.155.111h.379l.19.347.18-.347h.375s-.189-.12-.21-.146c-.023-.025-.05-.062 0-.104a.246.246 0 01.057-.032c.054-.024.117-.053.117-.137 0-.12-.238-.12-.238-.12s-.146-.263-.1-.377a.78.78 0 00.026-.086c.016-.063.025-.099.104-.099.108 0 .17-.137.033-.296 0 0 .158.17.111.389-.046.22.049.319.1.319.05 0 .132-.076.132-.076s.425.38.611.38c.187 0 .455-.304.455-.304l.384.216s.281.394.24.665c-.042.27-.202.421-.39.38-.19-.043-.496.043-.52.16l-.014.063c-.033.133-.08.331.067.282.174-.057.208-.102.208-.102s-.023.102.118.102c.14 0 .18-.102.18-.102s.146.102.248.102c.103 0 .217-.078.217-.078s.075.116.242.078c.167-.038.292-.473.171-.57 0 0 .402-.058.505-.408 0 0-.389-.005-.348-.245.04-.239.245-.393.245-.393s.59-.286.845-.377c.255-.092.677-.185.782-.185.043 0 .073.1.114.234.06.197.144.469.32.617.3.25.096.821.096.821s-.665.067-.665.247.01.26.135.26.122-.103.122-.103.074.102.194.102c.119 0 .214-.102.214-.102s.032.102.188.102c.157 0 .155-.102.155-.102s.029.102.167.102c.137 0 .42-.102.42-.102s.045.102.188.102c.143 0 .146-.102.146-.102s.077.102.201.102c.124 0 .197-.102.197-.102s.178.102.301.102.079-.184 0-.345c-.02-.04-.043-.075-.064-.107-.062-.094-.107-.161-.002-.278.03-.033.064-.066.099-.1.128-.124.256-.249.162-.358a.472.472 0 00-.094-.078c-.107-.075-.217-.151-.167-.576.03-.254.088-.46.141-.652.063-.226.12-.432.12-.67 0-.442-.26-.947-.26-.947s.35-.245.35-.743-.783-.553-.783-.553-.778.2-1.122.1a5.023 5.023 0 00-.196-.052c-.185-.046-.242-.06-.242-.19 0-.165-.25.142-.25.142s-.196-.078-.063-.241c.133-.163.194-.227.194-.227s-.118-.134-.316-.067-.233.178-.233.178-.226-.231-.085-.399c.14-.168.318 0 .318 0s.202.106.219-.033c.016-.139 0-.25 0-.25s.507.146.364.373c-.144.226-.053.31-.053.31s.349.02.412-.22a.507.507 0 00.002-.249c.1.048.215.104.183.197a2.62 2.62 0 01-.185.387s.348-.02.452-.294c.104-.273.067.067.067.067s.133-.005.334.111c.2.116 0-.178 0-.178s.416.516.81.455c.393-.061.371-.388.371-.388s-.093-.16-.288-.16c-.195 0-.084.16-.084.16s.19.108-.11 0c-.088-.031-.218-.132-.38-.258-.396-.308-.981-.763-1.584-.693-.848.098-1.145.477-1.145.477V4.52s-.142.219-.275.219c-.133 0-.502-.22-.502-.22l-.235.22s-.09-.22-.245-.22c-.157 0-.157.22-.157.22s-.196-.097-.413-.097a.556.556 0 01-.222-.057c-.084-.036-.132-.057-.132.057v.066c.005.155.007.251-.217.28-.256.033-.453.033-.453.033s-.152-.186-.271-.186c-.119 0-.257.144-.257.276 0 .131.154.506.257.586.027.021.022.019 0 .009-.062-.029-.257-.118-.257.071 0 .13.033.164.057.187.023.024.038.038.007.126a2.007 2.007 0 01-.05.123c-.072.171-.155.37-.014.37.077 0 .15-.017.201-.029.069-.016.1-.023.056.029l-.066.071c-.082.086-.166.174-.02.107a.974.974 0 00.194-.128c.078-.062.132-.104.163-.05.02.034.004.08-.01.12-.022.065-.038.113.126.058a.653.653 0 00.11-.044c0 .01.01.025.035.044.056.04.045.08.037.108-.01.034-.015.055.08.055.093 0 .223-.071.3-.113.074-.041.099-.055-.008.05a.944.944 0 01-.273.158c-.241.109-.535.241-.668.693-.18.61-.1.735-.088.75l-.553-.607s.132-.104.132-.277c0-.174-.343-.303-.343-.303s.012-2.161.111-2.633c.1-.471.15-.784.15-.784zm1.104 2.838a.019.019 0 00-.017.02c.024-.013.024-.02.017-.02zm4.167-1.744l-.007-.003c-.081-.038-.15-.071-.124-.114.038-.06.103.003.131.117zm.367 4.677s-.263.257-.096.314c.05.017.112.026.17.035.13.02.239.037.14.135-.143.14-.264.328-.264.5 0 .17.004.316.05.243.025-.04.129-.081.24-.126a1.56 1.56 0 00.253-.118c.12-.079.118-.165.115-.319l-.001-.086c0-.21-.607-.578-.607-.578zM14.289 6.18c.062-.049.066-.649.066-.649s.214.072.214.165c0 .059-.016.092-.04.143-.015.03-.033.067-.053.12-.047.128.082.209.2.284l.028.017c.08.052.103-.06.12-.146.01-.048.019-.088.034-.088.044 0 .369.073.614.198.213.108.423.055.903-.067l.229-.058c.647-.16.732.081.798.27.067.19-.436.454-.799.502-.159.02-.297.014-.424.008-.162-.008-.306-.015-.453.037-.23.082-.953.074-1.235.071h-.09c-.129 0-.153-.042-.202-.124a1.397 1.397 0 00-.045-.07c-.088-.13.02-.213.088-.213.07 0 .047-.152 0-.21-.047-.059-.014-.141.047-.19zM8.857 1.326v.226a.42.42 0 01-.025.108c-.043.135-.1.316.164.366.347.067.603.22.68.362.05.092.036-.06.02-.24a3.345 3.345 0 01-.02-.29c0-.222-.247-.653-.423-.532-.176.122-.396 0-.396 0zm0 12.116v.226s.22-.122.396 0c.176.121.424-.31.424-.531 0-.08.01-.19.019-.29.016-.18.03-.333-.02-.241-.077.143-.333.295-.68.362-.264.05-.207.231-.164.366.013.042.025.08.025.108zm9.79 0v.226s-.22-.122-.396 0c-.175.121-.423-.31-.423-.531 0-.08-.01-.19-.02-.29-.016-.18-.03-.333.02-.241.078.143.333.295.68.362.265.05.207.231.165.366a.395.395 0 00-.026.108zm0-11.89v-.226s-.22.122-.396 0c-.175-.121-.423.31-.423.531 0 .08-.01.19-.02.29-.016.18-.03.333.02.241.078-.143.333-.295.68-.362.265-.05.207-.231.165-.366a.395.395 0 01-.026-.108z" clip-rule="evenodd"/></g></svg>
